Flat-Remix-Dark/apps/scalable/aegisub.svg

<svg xmlns="http://www.w3.org/2000/svg" xmlns:xlink="http://www.w3.org/1999/xlink" width="384pt" height="384pt" version="1.1" viewBox="0 0 384 384"> <defs> <filter id="alpha" width="100%" height="100%" x="0%" y="0%" filterUnits="objectBoundingBox"> <feColorMatrix in="SourceGraphic" type="matrix" values="0 0 0 0 1 0 0 0 0 1 0 0 0 0 1 0 0 0 1 0"/> </filter> <mask id="mask0"> <g filter="url(#alpha)"> <rect width="384" height="384" x="0" y="0" style="fill:rgb(0%,0%,0%);fill-opacity:0.2"/> </g> </mask> <clipPath id="clip1"> <rect width="384" height="384" x="0" y="0"/> </clipPath> <g id="surface5" clip-path="url(#clip1)"> <path style="fill:rgb(0%,0%,0%)" d="M 106.078125 41.304688 C 99.695312 44.925781 94.390625 50.296875 90.746094 56.828125 L 23.335938 177.761719 C 16.246094 190.476562 16.21875 206.132812 23.269531 218.824219 L 90.292969 339.53125 C 97.339844 352.222656 110.390625 360.023438 124.523438 360 L 258.957031 359.769531 C 273.09375 359.742188 286.167969 351.894531 293.253906 339.179688 L 360.664062 218.242188 C 367.753906 205.523438 367.78125 189.871094 360.730469 177.179688 L 293.707031 56.472656 C 286.660156 43.777344 273.609375 35.976562 259.472656 36 L 125.042969 36.234375 C 118.414062 36.25 111.890625 37.996094 106.070312 41.304688 Z M 106.078125 41.304688"/> </g> <mask id="mask1"> <g filter="url(#alpha)"> <rect width="384" height="384" x="0" y="0" style="fill:rgb(0%,0%,0%);fill-opacity:0.2"/> </g> </mask> <clipPath id="clip2"> <rect width="384" height="384" x="0" y="0"/> </clipPath> <g id="surface8" clip-path="url(#clip2)"> <path style="fill:rgb(0%,0%,0%)" d="M 112.105469 32.566406 C 110.023438 33.304688 108.003906 34.222656 106.066406 35.3125 C 99.6875 38.933594 94.386719 44.304688 90.742188 50.832031 L 23.339844 171.765625 C 16.257812 184.480469 16.230469 200.128906 23.277344 212.816406 L 90.289062 333.535156 C 97.335938 346.222656 110.382812 354.023438 124.515625 354 L 258.949219 353.765625 C 269.011719 353.738281 278.699219 349.730469 286.039062 342.558594 Z M 112.105469 32.566406"/> </g> <mask id="mask2"> <g filter="url(#alpha)"> <rect width="384" height="384" x="0" y="0" style="fill:rgb(0%,0%,0%);fill-opacity:0.2"/> </g> </mask> <clipPath id="clip3"> <rect width="384" height="384" x="0" y="0"/> </clipPath> <g id="surface11" clip-path="url(#clip3)"> <path style="fill:rgb(0%,0%,0%)" d="M 274.484375 33.113281 L 100.855469 342.558594 C 100.855469 342.558594 99.746094 344.324219 99.496094 344.707031 C 106.542969 350.710938 115.382812 353.996094 124.515625 354 L 258.949219 353.765625 C 273.085938 353.746094 286.164062 345.902344 293.257812 333.183594 L 360.660156 212.25 C 367.75 199.53125 367.773438 183.875 360.726562 171.183594 L 293.710938 50.464844 C 289.332031 42.632812 282.570312 36.527344 274.484375 33.113281 Z M 274.484375 33.113281"/> </g> <mask id="mask3"> <g filter="url(#alpha)"> <rect width="384" height="384" x="0" y="0" style="fill:rgb(0%,0%,0%);fill-opacity:0.2"/> </g> </mask> <clipPath id="clip4"> <rect width="384" height="384" x="0" y="0"/> </clipPath> <g id="surface14" clip-path="url(#clip4)"> <path style="fill:rgb(0%,0%,0%)" d="M 18.445312 198 C 19.125 203.214844 20.761719 208.246094 23.273438 212.8125 L 90.28125 333.539062 C 97.332031 346.230469 110.386719 354.03125 124.523438 354 L 258.960938 353.765625 C 273.089844 353.738281 286.160156 345.894531 293.25 333.1875 L 360.65625 212.25 C 363.089844 207.84375 364.71875 203.015625 365.460938 198 Z M 18.445312 198"/> </g> <mask id="mask4"> <g filter="url(#alpha)"> <rect width="384" height="384" x="0" y="0" style="fill:rgb(0%,0%,0%);fill-opacity:0.2"/> </g> </mask> <clipPath id="clip5"> <rect width="384" height="384" x="0" y="0"/> </clipPath> <g id="surface17" clip-path="url(#clip5)"> <path style="fill:rgb(0%,0%,0%)" d="M 192 120 C 117.75 120 60 180.667969 60 199.421875 C 60 224 117.75 276 192 276 C 266.25 276 324 215.332031 324 199.421875 C 324 180.667969 266.25 120 192 120 Z M 192 120"/> </g> <mask id="mask5"> <g filter="url(#alpha)"> <rect width="384" height="384" x="0" y="0" style="fill:rgb(0%,0%,0%);fill-opacity:0.2"/> </g> </mask> <clipPath id="clip6"> <rect width="384" height="384" x="0" y="0"/> </clipPath> <g id="surface20" clip-path="url(#clip6)"> <path style="fill:rgb(100.000%,100.000%,100.000%)" d="M 259.476562 30 L 125.039062 30.234375 C 118.410156 30.25 111.886719 31.996094 106.066406 35.308594 C 99.691406 38.929688 94.390625 44.296875 90.75 50.824219 L 23.332031 171.761719 C 19.296875 179 17.484375 187.335938 18.128906 195.65625 C 18.515625 189.359375 20.296875 183.238281 23.332031 177.761719 L 90.75 56.824219 C 94.390625 50.296875 99.691406 44.929688 106.066406 41.308594 C 111.886719 37.996094 118.410156 36.25 125.039062 36.234375 L 259.476562 36 C 273.613281 35.976562 286.660156 43.78125 293.707031 56.472656 L 360.726562 177.175781 C 363.644531 182.429688 365.402344 188.292969 365.871094 194.34375 C 366.398438 186.253906 364.609375 178.195312 360.726562 171.175781 L 293.707031 50.472656 C 286.660156 37.78125 273.613281 29.976562 259.476562 30 Z M 259.476562 30"/> </g> </defs> <g> <use mask="url(#mask0)" xlink:href="#surface5"/> <path style="fill:rgb(99.215%,28.627%,28.627%)" d="M 106.078125 35.304688 C 99.695312 38.925781 94.390625 44.296875 90.746094 50.828125 L 23.335938 171.761719 C 16.246094 184.476562 16.21875 200.132812 23.269531 212.824219 L 90.292969 333.53125 C 97.339844 346.222656 110.390625 354.023438 124.523438 354 L 258.957031 353.769531 C 273.09375 353.742188 286.167969 345.894531 293.253906 333.179688 L 360.664062 212.242188 C 367.753906 199.523438 367.78125 183.871094 360.730469 171.179688 L 293.707031 50.472656 C 286.660156 37.777344 273.609375 29.976562 259.472656 30 L 125.042969 30.234375 C 118.414062 30.25 111.890625 31.996094 106.070312 35.304688 Z M 106.078125 35.304688"/> <use mask="url(#mask1)" xlink:href="#surface8"/> <use mask="url(#mask2)" xlink:href="#surface11"/> <use mask="url(#mask3)" xlink:href="#surface14"/> <use mask="url(#mask4)" xlink:href="#surface17"/> <path style="fill:rgb(100.000%,100.000%,100.000%)" d="M 192 114 C 117.75 114 60 174.667969 60 193.421875 C 60 218 117.75 270 192 270 C 266.25 270 324 209.332031 324 193.421875 C 324 174.667969 266.25 114 192 114 Z M 192 114"/> <path style="fill:rgb(21.176%,48.235%,94.117%)" d="M 258 192 C 258 228.449219 228.449219 258 192 258 C 155.550781 258 126 228.449219 126 192 C 126 155.550781 155.550781 126 192 126 C 228.449219 126 258 155.550781 258 192 Z M 258 192"/> <path style="fill:rgb(29.803%,29.803%,29.803%)" d="M 228 192 C 228 211.882812 211.882812 228 192 228 C 172.117188 228 156 211.882812 156 192 C 156 172.117188 172.117188 156 192 156 C 211.882812 156 228 172.117188 228 192 Z M 228 192"/> <use mask="url(#mask5)" xlink:href="#surface20"/> </g> </svg>

<svg width="512" height="512" version="1.1" viewBox="0 0 384 384" xmlns="http://www.w3.org/2000/svg"><path d="m106.08 42.809c-6.3828 3.6211-11.688 8.9922-15.332 15.523l-67.41 120.93c-7.0898 12.715-7.1172 28.371-0.0664 41.062l67.023 120.71c7.0469 12.691 20.098 20.492 34.23 20.469l134.43-0.23047c14.137-0.0273 27.211-7.875 34.297-20.59l67.41-120.94c7.0898-12.719 7.1172-28.371 0.0664-41.062l-67.023-120.71c-7.0469-12.695-20.098-20.496-34.234-20.473l-134.43 0.23438c-6.6289 0.0156-13.152 1.7617-18.973 5.0703z" opacity=".3"/><path d="m106.08 35.305c-6.3828 3.6211-11.688 8.9922-15.332 15.523l-67.41 120.93c-7.0898 12.715-7.1172 28.371-0.06641 41.062l67.023 120.71c7.0469 12.691 20.098 20.492 34.23 20.469l134.43-0.23047c14.137-0.0273 27.211-7.875 34.297-20.59l67.41-120.94c7.0898-12.719 7.1172-28.371 0.0664-41.062l-67.023-120.71c-7.0469-12.695-20.098-20.496-34.234-20.473l-134.43 0.23438c-6.6289 0.01563-13.152 1.7617-18.973 5.0703z" fill="#fd4747"/><mask/><mask/><path d="m112.11 32.566c-2.082 0.73828-4.1016 1.6562-6.0391 2.7461-6.3789 3.6211-11.68 8.9922-15.324 15.52l-67.402 120.93c-7.082 12.715-7.1094 28.363-0.0625 41.051l67.012 120.72c7.0469 12.688 20.094 20.488 34.227 20.465l134.43-0.23438c10.062-0.0273 19.75-4.0352 27.09-11.207z" opacity=".1"/><mask/><path d="m274.48 33.113-173.63 309.45s-1.1094 1.7656-1.3594 2.1484c7.0469 6.0039 15.887 9.2891 25.02 9.293l134.43-0.23438c14.137-0.0195 27.215-7.8633 34.309-20.582l67.402-120.93c7.0898-12.719 7.1133-28.375 0.0664-41.066l-67.016-120.72c-4.3789-7.832-11.141-13.938-19.227-17.352z" opacity=".3"/><mask/><path d="m18.445 198c0.67969 5.2148 2.3164 10.246 4.8281 14.812l67.008 120.73c7.0508 12.691 20.105 20.492 34.242 20.461l134.44-0.23438c14.129-0.0273 27.199-7.8711 34.289-20.578l67.406-120.94c2.4336-4.4062 4.0625-9.2344 4.8047-14.25z" opacity=".3"/><mask/><mask/><path d="m192 114c-74.25 0-132 60.668-132 79.422 0 24.578 57.75 76.578 132 76.578s132-60.668 132-76.578c0-18.754-57.75-79.422-132-79.422z" fill="#fff"/><path d="m258 192c0 36.449-29.551 66-66 66s-66-29.551-66-66 29.551-66 66-66 66 29.551 66 66z" fill="#357af0"/><path d="m228 192c0 19.883-16.117 36-36 36s-36-16.117-36-36 16.117-36 36-36 36 16.117 36 36z"/><path transform="scale(.75)" d="m345.96 39.992-179.24 0.3125c-8.8385 0.020799-17.536 2.3483-25.297 6.7598l0.01562 0.009766c-8.5104 4.8281-15.583 11.99-20.441 20.697l-89.881 161.24c-5.5785 10.005-7.875 21.375-6.8906 32.492 0.68659-7.7964 2.9808-15.48 6.8906-22.492l89.881-161.24c4.8587-8.7077 11.931-15.869 20.441-20.697l-0.01562-0.009766c7.7613-4.4115 16.458-6.739 25.297-6.7598l179.24-0.3125c18.848-0.030667 36.251 10.37 45.646 27.297l89.363 160.95c3.8533 6.9356 6.119 14.533 6.8027 22.254 0.97342-11.053-1.29-22.331-6.8027-32.254l-89.363-160.95c-9.3959-16.927-26.798-27.328-45.646-27.297z" fill="#fff" opacity=".3" stroke-width="1.3333"/></svg>
